X:1
T:Dusty Windowsill, The
T:Austin Barratts
C:Sean Harling
R:jig
Z:id:hn-jig-91
M:6/8
K:Ador
"Am"A2B cBA| eAB cBA| "G"~G3 EGG| DGG EGG| "Dm"A2B cBA|
e2d efg| age "G"dBe|1 "Am"ABA A2G:|2 "Am"ABA A2g|||:
